imgs/avatar.svg

<svg width="15" height="15" viewBox="0 0 15 15" fill="none" xmlns="http://www.w3.org/2000/svg">
<path d="M9.74121 8.81104C10.4053 9.04053 11.0034 9.36279 11.5356 9.77783C12.0728 10.188 12.5269 10.6641 12.8979 11.2061C13.2739 11.748 13.562 12.3413 13.7622 12.9858C13.9624 13.6304 14.0625 14.3018 14.0625 15H13.125C13.125 14.1992 12.981 13.457 12.6929 12.7734C12.4097 12.085 12.0166 11.4893 11.5137 10.9863C11.0107 10.4834 10.415 10.0903 9.72656 9.80713C9.04297 9.51904 8.30078 9.375 7.5 9.375C6.97754 9.375 6.47461 9.44092 5.99121 9.57275C5.50781 9.70459 5.05615 9.89258 4.63623 10.1367C4.22119 10.376 3.84277 10.6665 3.50098 11.0083C3.16406 11.3452 2.87354 11.7236 2.62939 12.1436C2.39014 12.5586 2.20459 13.0078 2.07275 13.4912C1.94092 13.9746 1.875 14.4775 1.875 15H0.9375C0.9375 14.2969 1.04004 13.6255 1.24512 12.9858C1.4502 12.3413 1.74072 11.7505 2.1167 11.2134C2.49268 10.6763 2.94678 10.2026 3.479 9.79248C4.01611 9.38232 4.61426 9.05762 5.27344 8.81836C4.89258 8.61328 4.55078 8.36426 4.24805 8.07129C3.94531 7.77832 3.68652 7.45361 3.47168 7.09717C3.26172 6.73584 3.09814 6.35254 2.98096 5.94727C2.86865 5.53711 2.8125 5.11719 2.8125 4.6875C2.8125 4.03809 2.93457 3.43018 3.17871 2.86377C3.42285 2.29248 3.75732 1.79443 4.18213 1.36963C4.60693 0.944824 5.10254 0.610352 5.66895 0.366211C6.24023 0.12207 6.85059 0 7.5 0C8.14941 0 8.75732 0.12207 9.32373 0.366211C9.89502 0.610352 10.3931 0.944824 10.8179 1.36963C11.2427 1.79443 11.5771 2.29248 11.8213 2.86377C12.0654 3.43018 12.1875 4.03809 12.1875 4.6875C12.1875 5.11719 12.1289 5.53467 12.0117 5.93994C11.8994 6.34521 11.7358 6.72607 11.521 7.08252C11.311 7.43896 11.0547 7.76611 10.752 8.06396C10.4541 8.35693 10.1172 8.60596 9.74121 8.81104ZM3.75 4.6875C3.75 5.20508 3.84766 5.69092 4.04297 6.14502C4.24316 6.59912 4.51172 6.99707 4.84863 7.33887C5.19043 7.67578 5.58838 7.94434 6.04248 8.14453C6.49658 8.33984 6.98242 8.4375 7.5 8.4375C8.01758 8.4375 8.50342 8.33984 8.95752 8.14453C9.41162 7.94434 9.80713 7.67578 10.144 7.33887C10.4858 6.99707 10.7544 6.59912 10.9497 6.14502C11.1499 5.69092 11.25 5.20508 11.25 4.6875C11.25 4.16992 11.1499 3.68408 10.9497 3.22998C10.7544 2.77588 10.4858 2.38037 10.144 2.04346C9.80713 1.70166 9.41162 1.43311 8.95752 1.23779C8.50342 1.0376 8.01758 0.9375 7.5 0.9375C6.98242 0.9375 6.49658 1.0376 6.04248 1.23779C5.58838 1.43311 5.19043 1.70166 4.84863 2.04346C4.51172 2.38037 4.24316 2.77588 4.04297 3.22998C3.84766 3.68408 3.75 4.16992 3.75 4.6875Z" fill="#5B5863"/>
</svg>

<svg width="15" height="15" fill="none" xmlns="http://www.w3.org/2000/svg"><path d="M9.741 8.811a6.2 6.2 0 011.795.967c.537.41.99.886 1.362 1.428.376.542.664 1.135.864 1.78.2.644.3 1.316.3 2.014h-.937c0-.8-.144-1.543-.432-2.227a5.405 5.405 0 00-1.18-1.787 5.405 5.405 0 00-1.786-1.179A5.675 5.675 0 007.5 9.375a5.71 5.71 0 00-2.864.762 5.522 5.522 0 00-2.563 3.354A5.709 5.709 0 001.875 15H.937c0-.703.103-1.374.308-2.014a6.515 6.515 0 01.872-1.773c.376-.537.83-1.01 1.362-1.42a6.706 6.706 0 011.794-.975 4.606 4.606 0 01-1.025-.747 4.796 4.796 0 01-.776-.974 5.098 5.098 0 01-.491-1.15 4.749 4.749 0 01-.168-1.26c0-.649.122-1.257.366-1.823A4.704 4.704 0 014.182 1.37C4.607.945 5.102.61 5.67.366A4.61 4.61 0 017.5 0a4.694 4.694 0 013.318 1.37c.425.424.76.922 1.003 1.494.244.566.367 1.174.367 1.824 0 .43-.06.847-.176 1.252a4.565 4.565 0 01-.491 1.143 4.77 4.77 0 01-.769.981 4.52 4.52 0 01-1.01.747zM3.75 4.688c0 .517.098 1.003.293 1.457.2.454.469.852.806 1.194.341.337.74.605 1.193.806.455.195.94.293 1.458.293a3.65 3.65 0 001.458-.293 3.787 3.787 0 001.992-2c.2-.454.3-.94.3-1.458 0-.517-.1-1.003-.3-1.457a3.7 3.7 0 00-.806-1.187 3.7 3.7 0 00-1.186-.805c-.455-.2-.94-.3-1.458-.3s-1.003.1-1.458.3A3.788 3.788 0 004.043 3.23a3.65 3.65 0 00-.293 1.458z" fill="#5B5863"/></svg>
